X: 1998
T: As I Went Out Upon The Ice
R: polka
M: 2/4
K: Adorian
B/d/|:eA BA|eA AB/d/|eA B/c/B/A/|G2 GB/d/|
eA BA|eA B/c/B/A/|GB dB|A2 AB/d/:|
|:ea af|g>e ed|B/c/d ef|g2 g2|
ea af|g>e ed|B/c/d gB|A2 AB/d/:|

